svg/fluentui-system-icons/ic_fluent_mail_attach_16_regular.svg

<svg width="16" height="16" viewBox="0 0 16 16" fill="none" xmlns="http://www.w3.org/2000/svg">
<path d="M7.40663 8.21322L7.0001 8.43212L2 5.73976V5C2 4.44772 2.44772 4 3 4H7.87708L8.87522 3H3C1.89543 3 1 3.89543 1 5V11C1 12.1046 1.89543 13 3 13H11C12.1046 13 13 12.1046 13 11V9.11813L12 10.1138V11C12 11.5523 11.5523 12 11 12H3C2.44772 12 2 11.5523 2 11V6.87552L6.76305 9.44024C6.91104 9.51992 7.08916 9.51992 7.23715 9.44024L7.49743 9.30008C7.38935 8.94754 7.35909 8.57626 7.40663 8.21322ZM11.226 3.47579L8.35388 6.35323C8.1588 6.54867 7.84222 6.54897 7.64678 6.35389C7.45133 6.15881 7.45104 5.84222 7.64612 5.64678L10.5185 2.76901C11.5436 1.74388 13.206 1.74355 14.2312 2.76868C15.2563 3.79381 15.2563 5.45586 14.2312 6.48099L11.0479 9.65043C10.4387 10.2592 9.45082 10.2595 8.84176 9.65043C8.23254 9.04121 8.23254 8.05348 8.84176 7.44426L11.6469 4.64601C11.8424 4.45099 12.159 4.45138 12.354 4.64688C12.549 4.84238 12.5486 5.15897 12.3531 5.35399L9.54887 8.15136C9.33041 8.37008 9.33025 8.72471 9.54887 8.94332C9.76756 9.16202 10.1221 9.16202 10.3408 8.94332L10.3416 8.94256L13.524 5.77388C14.1582 5.13925 14.1585 4.11025 13.524 3.47579C12.8895 2.84126 11.8606 2.8414 11.226 3.47579Z" fill="#212121"/>
</svg>

<svg xmlns="http://www.w3.org/2000/svg" width="16" height="16"><path d="M7.407 8.213 7 8.433 2 5.74V5a1 1 0 0 1 1-1h4.877l.998-1H3a2 2 0 0 0-2 2v6a2 2 0 0 0 2 2h8a2 2 0 0 0 2-2V9.118l-1 .996V11a1 1 0 0 1-1 1H3a1 1 0 0 1-1-1V6.876L6.763 9.44a.5.5 0 0 0 .474 0l.26-.14a2.572 2.572 0 0 1-.09-1.087Zm3.819-4.737L8.354 6.353a.5.5 0 1 1-.708-.706l2.872-2.878a2.625 2.625 0 0 1 3.713 3.712l-3.183 3.17a1.56 1.56 0 0 1-2.206-2.207l2.805-2.798a.5.5 0 1 1 .706.708L9.55 8.151a.56.56 0 0 0 .792.792l3.183-3.17a1.625 1.625 0 0 0-2.298-2.297Z"/></svg>
